X:8015
T:Humours of Glendart
R:Jig
C:Trad.
O:Ireland
Z:Paul Hardy's Session Tunebook 2015 (see www.paulhardy.net). Creative Commons cc by-nc-sa licenced.
M:6/8
L:1/8
Q:3/8=100
K:D
A|"D"BAF AFD|FEF DFA|BAF AFD|"A"FEE EFA|
"D"BAF AFD|FEF DFA|"G"dcB "A"AFE|"D"FD D D2:|
|:A|"D"def d2 B|"A"ABA AFA|"D"def def|"Em"efe edB|
"D"def d2B|"A"ABA AFA|"D"dcB "A"AFE|"D"FD D D2:|

